X:630
T:the Banks and Braes
A:Wyresdale, Lancashire
B:E and J Winder, 1835-41
L:1/8
M:6/8
O:England
Z:Richard Robinson 
%%TUNEURL: http://www.leeds.ac.uk/music/Info/RRTuneBk/gettune/00000ef6.html
%%ID:00000ef6
K:C
G |\
c2c (d>cd) | ege d>cd | (e>d)c cAG | GAc d2G |\
c2c (d>c)d | (eg)e d>cd | (e>d)c (c<B)G | (GAB) c2 ||
e |\
g2a (ge)c | g2a gec | gec gec | {a}gfe Hd2G |\
c2c d>cd | (eg)e (d>c)d | (e>d)c c<AG | (GAB) c2 |]
